T: Slopes Of Slieve Gullion, The
M: 9/8
L: 1/8
K: Gmaj
|: G2 B BG/A/B dBG | e2 c AB/A/G FED | GBB BGB dBd |[1 ece fd/e/f gdB :|[2 ece fdf g2 a |||: b2 g agf g2 d | g2 g ee/f/g fdB | e2 c fdf g2 e |[1 dgf e2 ^d ef/g/a :|[2 dgf ee/d/c BcA |]|[1 dgf e2 f g2 a :|[2 d2 g e2 c Bc/B/A |] ~ ..
